X: 1
T: O'Mahony's
M: 4/4
L: 1/8
R: hornpipe
K: Dmaj
|:dB|AFEF (3DDD DE|FDFA d2 de|fedB AFDE|FEED E2 dB|
AFEF (3DDD DE|FDFA d2 de|fedB AFEF|D2 DE D2:|
|:dB|ABde f2 ef|gfed e2 de|f2 fe dBAF|FEED E2 dB|
AFEF (3DDD DE|FDFA d2 de|fedB AFEF|D2 DE D2:|
